X: 18
T: Bear Dance Song (b)
N: Derived from pawnee18.krn
O: Oklahoma, U.S.A.
N: from Pawnee Music by Frances Densmore, 1926
Z: transcribed to **kern format by David Huron, August 2000
C: Skidi and Chaui Bands, 1919
L: 1/8
M: 2/4
Q: 1/4=88
K: E clef=bass
%%linebreak <none>
D D/ D/ [I:setbarnb 1]| 
!accent!D D E D/ z/[M:3/4] | 
D C C C D D/ z/[M:2/4] | 
!accent!D C C C | 
!accent!D D E D/ z/ | 
D C C C/ z/ | 
D D D C/ z/ | 
!accent!D G, G, G,/ z/ | 
!accent!A, A, A, G,/ z/[M:3/4] | 
G, D, D, D, E, D,/ z/ | 
C, C, C, C,/ z/ D, D,[M:2/4] | 
C, C, C, z[M:3/4] | 
D D D D D D[M:2/4] | 
!accent!D D E D/ z/ | 
D C C C/ z/ | 
!accent!D D D C/ z/ | 
D G, G, G,/ z/ | 
!accent!A, A, A, G,/ z/[M:3/4] | 
G, D, D, D, E, D,/ z/ | 
C, C, C, C,/ z/ D, D,[M:2/4] | 
C, C, C, z :|]  



